X: 1
T: Raise a Glass to Saint Patrick   [D]
%R: jig, song
Z: 2019 John Chambers <jc:trillian.mit.edu>
S: printed page of unknown origin from Darlene Wigton 2019-3-2
L: 1/8
M: 6/8
K: D
[|\
"D"f2f "A"edc | "D"dA2- A3 | "D"d2d "A"cBc | "D"d3- d2d |\
"G"G2B "A"A2c | "D"df2 "Em"g3- g2g | "D"fd2 "A"Ae2 | "D"d3- d3 |]
"D"f2d A2d | "G"cB2- B2f | "Em"g2e "A"c2e | "D"A3- A2f |\
a2f d2c | "G"B>cd/B/ "D"A2A | "Em"Bd2 "A"g2f | "D"d3- d2d |
"Bm"d2d "A"c2d | "A7"edc "D"d>ef | "G"g2g "D"f>ed | "A"e3- e2f |\
"D"a2f d2c | "G"Bd2 "D"A2A | "Em"Bd2 "A"g2f | "D"d3- d2 |] z6 |]

%%sep 1 1 500

